X:1
T:We Wait His Coming
T:We Wait His Coming
T:James Holmes Rosecrans
T:Daniel Robertson Lucas, 1886
T:Public Domain Courtesy of the Cyber Hymnal™
C:James Holmes Rosecrans
Z:Public Domain
Z:Courtesy of the Cyber Hymnal™
%%score ( 1 2 ) ( 3 4 )
L:1/8
Q:1/4=103
M:4/4
K:Bb
V:1 treble 
V:2 treble 
V:3 bass 
V:4 bass 
V:1
 [DF]2 | [DF]3 [DF] [EG][EA][DB][Fc] | [Fd]6 [DF]2 | [EG]2 [EB]2 [Ec][EB][EG][EB] | [DF]6 [DF]2 | %5
w: 1.~We|wait the com- ing of the|Lord, The|Sav- ior reign- ing now a-|bove; The|
w: 2.~We|wait the com- ing of our|friend, Who|loves us with im- mor- tal|love; And|
w: 3.~We|wait the com- ing of the|King, Who|holds the key of ev- ery|grave, Who|
 [DF]3 [DF] [EG][EA][DB][Fc] | [Fd]6 [DF]2 | [EG]2 [EB]2 [EB][EA][EG][EA] | [DB]6 || %9
w: prom- ise of His ho- ly|Word, He|shall con- firm in truth and|love.|
w: shall Him- self from Heav’n des-|cend, And|bring us to our home a-|bove.|
w: will the palms of vic- tory|bring, And|all His loy- al peo- ple|save.|
"^Refrain" [DF]2 | B4 [DF]2 [DF][DB] | [DB][CA][CA][CA] [CA]2 [CF]2 | c4 [EA]2 [EG][EF] | %13
w: ||||
w: O|wait, calm- ly wait,|* for He will come; O|wait, He will come|
w: ||||
 [DB][DF][DF][DF] [DF]2 [DF]2 | d4 [DB]2 [DB][DB] | [Ec][EB][EB][EG] [EB]2 [EG]2 | %16
w: |||
w: * and bring us home; O|wait, calm- ly wait,|* for He will come; O|
w: |||
 [DF]2 [DF][DB] [EB][EA][EG][EA] | !fermata!B6 |] %18
w: ||
w: wait, He will come and bring us|home.|
w: ||
V:2
 x2 | x8 | x8 | x8 | x8 | x8 | x8 | x8 | x6 || x2 | D2 DD x4 | x8 | E2 EE x4 | x8 | F2 FF x4 | x8 | %16
 x8 | (D2 EE D2) |] %18
V:3
 [B,,B,]2 | [B,,B,]3 [B,,B,] [B,,B,][B,,F,][B,,B,][B,,B,] | [B,,B,]6 [B,,B,]2 | %3
w: ~|~ ~ ~ ~ ~ ~|~ ~|
 [E,B,]2 [E,G,]2 [E,G,][E,G,][E,B,][G,B,] | B,6 [B,,B,]2 | %5
w: ~ ~ ~ ~ ~ ~|~ ~|
 [B,,B,]3 [B,,B,] [B,,B,][B,,F,][B,,B,][B,,B,] | [B,,B,]6 [B,,B,]2 | [E,B,]2 [E,G,]2 F,F,F,F, | %8
w: ~ ~ ~ ~ ~ ~|~ ~|~ ~ ~ ~ ~ ~|
 [B,,F,]6 || [B,,B,]2 | [B,,F,]2 [B,,F,][B,,F,] [B,,B,]2 [B,,B,][B,,F,] | F,F,F,F, F,2 [F,A,]2 | %12
w: ~|~|~ calm- y wait, ~ ~|~ ~ ~ ~ ~ ~|
 [F,A,]2 [F,A,][F,A,] [F,C]2 [F,C][F,A,] | [B,,F,][B,,B,][B,,B,][B,,B,] [B,,B,]2 [B,,B,]2 | %14
w: ~ calm- y wait, ~ ~|~ ~ ~ ~ ~ ~|
 [B,,B,]2 [B,,B,][B,,B,] [B,,F,]2 [B,,_A,][B,,A,] | [E,G,][E,G,][E,G,][E,G,] [E,G,]2 [E,B,]2 | %16
w: ~ calm- y wait, ~ ~|~ ~ ~ ~ ~ ~|
 [F,B,]2 [F,B,]F, F,F,F,F, | [B,,F,]2 [B,,G,][B,,G,] !fermata![B,,F,]2 |] %18
w: ~ ~ ~ ~ ~ ~ ~|~ bring us home.|
V:4
 x2 | x8 | x8 | x8 | B,6 x2 | x8 | x8 | x4 F,F,F,F, | x6 || x2 | x8 | F,F,F,F, F,2 x2 | x8 | x8 | %14
 x8 | x8 | x3 F, F,F,F,F, | x6 |] %18

